priv/static/svgs/country_flags/GB.svg

<?xml version="1.0" encoding="UTF-8"?>
<svg id="item" width="21px" height="15px" viewBox="0 0 21 15" version="1.1" xmlns="http://www.w3.org/2000/svg" xmlns:xlink="http://www.w3.org/1999/xlink">
    <defs>
        <linearGradient x1="50%" y1="0%" x2="50%" y2="100%" id="linearGradient-1">
            <stop stop-color="#FFFFFF" offset="0%"></stop>
            <stop stop-color="#F0F0F0" offset="100%"></stop>
        </linearGradient>
        <linearGradient x1="50%" y1="0%" x2="50%" y2="100%" id="linearGradient-2">
            <stop stop-color="#0A17A7" offset="0%"></stop>
            <stop stop-color="#030E88" offset="100%"></stop>
        </linearGradient>
        <linearGradient x1="50%" y1="0%" x2="50%" y2="100%" id="linearGradient-3">
            <stop stop-color="#E6273E" offset="0%"></stop>
            <stop stop-color="#CF152B" offset="100%"></stop>
        </linearGradient>
    </defs>
    <g id="Symbols" stroke="none" stroke-width="1" fill="none" fill-rule="evenodd">
        <g id="GB">
            <rect id="FlagBackground" fill="url(#linearGradient-1)" x="0" y="0" width="21" height="15"></rect>
            <rect id="Mask-Copy" fill="url(#linearGradient-2)" x="-0.00188732147" y="0" width="21" height="15"></rect>
            <path d="M5.00341861,10 L-0.00188732147,10 L-0.00188732147,5 L5.00341861,5 L-2.08212503,0.220740472 L-0.96373922,-1.43733467 L7.99811268,4.60751076 L7.99811268,-1 L12.9981127,-1 L12.9981127,4.60751076 L21.9599646,-1.43733467 L23.0783504,0.220740472 L15.9928067,5 L20.9981127,5 L20.9981127,10 L15.9928067,10 L23.0783504,14.7792595 L21.9599646,16.4373347 L12.9981127,10.3924892 L12.9981127,16 L7.99811268,16 L7.99811268,10.3924892 L-0.96373922,16.4373347 L-2.08212503,14.7792595 L5.00341861,10 Z" id="Rectangle-2" fill="url(#linearGradient-1)"></path>
            <path d="M14.1364901,4.95800192 L23.6355136,-1.29114359 C23.7508618,-1.367028 23.7828535,-1.52205266 23.7069691,-1.63740087 C23.6310847,-1.75274908 23.47606,-1.78474082 23.3607118,-1.70885641 L13.8616884,4.5402891 C13.7463402,4.6161735 13.7143484,4.77119817 13.7902328,4.88654638 C13.8661172,5.00189459 14.0211419,5.03388632 14.1364901,4.95800192 Z" id="Line" fill="#DB1F35" fill-rule="nonzero"></path>
            <path d="M14.8679651,10.4804377 L23.383346,16.2200617 C23.4978376,16.2972325 23.6532106,16.266978 23.7303814,16.1524864 C23.8075522,16.0379948 23.7772977,15.8826218 23.6628061,15.805451 L15.1474253,10.065827 C15.0329337,9.98865619 14.8775606,10.0189107 14.8003898,10.1334023 C14.7232191,10.2478938 14.7534735,10.4032669 14.8679651,10.4804377 Z" id="Line-Copy-2" fill="#DB1F35" fill-rule="nonzero"></path>
            <path d="M6.14197982,4.5255348 L-2.74028336,-1.46054919 C-2.8547799,-1.53771262 -3.01015101,-1.50744816 -3.08731444,-1.39295161 C-3.16447787,-1.27845507 -3.13421341,-1.12308397 -3.01971687,-1.04592054 L5.86254632,4.94016345 C5.97704286,5.01732688 6.13241396,4.98706241 6.20957739,4.87256587 C6.28674083,4.75806933 6.25647636,4.60269823 6.14197982,4.5255348 Z" id="Line-Copy" fill="#DB1F35" fill-rule="nonzero"></path>
            <path d="M6.82747404,9.99532456 L-3.01816805,16.5244994 C-3.13323644,16.6008074 -3.16465792,16.7559487 -3.08834987,16.8710171 C-3.01204183,16.9860854 -2.85690058,17.0175069 -2.74183218,16.9411989 L7.10380991,10.4120241 C7.2188783,10.335716 7.25029978,10.1805748 7.17399174,10.0655064 C7.09768369,9.95043799 6.94254244,9.91901651 6.82747404,9.99532456 Z" id="Line-Copy-3" fill="#DB1F35" fill-rule="nonzero"></path>
            <polygon id="Rectangle-2-Copy-3" fill="url(#linearGradient-3)" points="-0.00188732147 9 8.99811268 9 8.99811268 15 11.9981127 15 11.9981127 9 20.9981127 9 20.9981127 6 11.9981127 6 11.9981127 0 8.99811268 0 8.99811268 6 -0.00188732147 6"></polygon>
        </g>
    </g>
</svg>

<svg width="21" height="15" viewBox="0 0 21 15" xmlns="http://www.w3.org/2000/svg"><defs><linearGradient x1="50%" y1="0%" x2="50%" y2="100%" id="a"><stop stop-color="#FFF" offset="0%"/><stop stop-color="#F0F0F0" offset="100%"/></linearGradient><linearGradient x1="50%" y1="0%" x2="50%" y2="100%" id="b"><stop stop-color="#0A17A7" offset="0%"/><stop stop-color="#030E88" offset="100%"/></linearGradient><linearGradient x1="50%" y1="0%" x2="50%" y2="100%" id="c"><stop stop-color="#E6273E" offset="0%"/><stop stop-color="#CF152B" offset="100%"/></linearGradient></defs><g fill="none" fill-rule="evenodd"><path fill="url(#a)" d="M0 0h21v15H0z"/><path fill="url(#b)" d="M-.002 0h21v15h-21z"/><path d="M5.003 10H-.002V5h5.005L-2.082.22l1.118-1.657 8.962 6.045V-1h5v5.608l8.962-6.045L23.078.22 15.993 5h5.005v5h-5.005l7.085 4.78-1.118 1.657-8.962-6.045V16h-5v-5.608l-8.962 6.045-1.118-1.658L5.003 10Z" fill="url(#a)"/><path d="m14.136 4.958 9.5-6.25a.25.25 0 0 0-.275-.417l-9.5 6.25a.25.25 0 1 0 .275.417ZM14.868 10.48l8.515 5.74a.25.25 0 1 0 .28-.415l-8.516-5.74a.25.25 0 0 0-.279.415ZM6.142 4.526-2.74-1.461a.25.25 0 0 0-.28.415L5.863 4.94a.25.25 0 0 0 .279-.414ZM6.827 9.995l-9.845 6.53a.25.25 0 1 0 .276.416l9.846-6.529a.25.25 0 0 0-.277-.417Z" fill="#DB1F35" fill-rule="nonzero"/><path fill="url(#c)" d="M-.002 9h9v6h3V9h9V6h-9V0h-3v6h-9z"/></g></svg>
